public/luts/mediageekz-punchy.cube
# Mediageekz Punchy
TITLE "Mediageekz Punchy"
DOMAIN_MIN 0.0 0.0 0.0
DOMAIN_MAX 1.0 1.0 1.0
LUT_3D_SIZE 5
0.000000 0.000000 0.000000
0.190428 0.000000 0.000000
0.559055 0.000000 0.000000
0.927682 0.000000 0.000000
1.000000 0.000000 0.000000
0.000000 0.177588 0.000000
0.172157 0.172157 0.000000
0.540784 0.161643 0.000000
0.909411 0.151130 0.000000
1.000000 0.145698 0.000000
0.000000 0.521360 0.000000
0.136788 0.515929 0.000000
0.505415 0.505415 0.000000
0.874042 0.494901 0.000000
1.000000 0.489470 0.000000
0.000000 0.865132 0.000000
0.101419 0.859700 0.000000
0.470046 0.849187 0.000000
0.838673 0.838673 0.000000
1.000000 0.833242 0.000000
0.000000 1.000000 0.000000
0.083148 1.000000 0.000000
0.451775 1.000000 0.000000
0.820402 1.000000 0.000000
1.000000 1.000000 0.000000
0.000000 0.000000 0.194015
0.188584 0.000000 0.188584
0.557211 0.000000 0.178070
0.925837 0.000000 0.167556
1.000000 0.000000 0.162125
0.000000 0.175744 0.175744
0.170313 0.170313 0.170313
0.538939 0.159799 0.159799
0.907566 0.149285 0.149285
1.000000 0.143854 0.143854
0.000000 0.519516 0.140375
0.134944 0.514084 0.134944
0.503571 0.503571 0.124430
0.872197 0.493057 0.113916
1.000000 0.487626 0.108485
0.000000 0.863287 0.105006
0.099575 0.857856 0.099575
0.468202 0.847342 0.089061
0.836829 0.836829 0.078547
1.000000 0.831397 0.073116
0.000000 1.000000 0.086735
0.081304 1.000000 0.081304
0.449931 1.000000 0.070790
0.818557 1.000000 0.060276
1.000000 1.000000 0.054845
0.000000 0.000000 0.569585
0.185013 0.000000 0.564154
0.553640 0.000000 0.553640
0.922267 0.000000 0.543126
1.000000 0.000000 0.537695
0.000000 0.172173 0.551314
0.166742 0.166742 0.545883
0.535369 0.156228 0.535369
0.903996 0.145715 0.524855
1.000000 0.140283 0.519424
0.000000 0.515945 0.515945
0.131373 0.510514 0.510514
0.500000 0.500000 0.500000
0.868627 0.489486 0.489486
1.000000 0.484055 0.484055
0.000000 0.859717 0.480576
0.096004 0.854285 0.475145
0.464631 0.843772 0.464631
0.833258 0.833258 0.454117
1.000000 0.827827 0.448686
0.000000 1.000000 0.462305
0.077733 1.000000 0.456874
0.446360 1.000000 0.446360
0.814987 1.000000 0.435846
1.000000 1.000000 0.430415
0.000000 0.000000 0.945155
0.181443 0.000000 0.939724
0.550069 0.000000 0.929210
0.918696 0.000000 0.918696
1.000000 0.000000 0.913265
0.000000 0.168603 0.926884
0.163171 0.163171 0.921453
0.531798 0.152658 0.910939
0.900425 0.142144 0.900425
1.000000 0.136713 0.894994
0.000000 0.512374 0.891515
0.127803 0.506943 0.886084
0.496429 0.496429 0.875570
0.865056 0.485916 0.865056
1.000000 0.480484 0.859625
0.000000 0.856146 0.856146
0.092434 0.850715 0.850715
0.461061 0.840201 0.840201
0.829687 0.829687 0.829687
1.000000 0.824256 0.824256
0.000000 1.000000 0.837875
0.074163 1.000000 0.832444
0.442789 1.000000 0.821930
0.811416 1.000000 0.811416
1.000000 1.000000 0.805985
0.000000 0.000000 1.000000
0.179598 0.000000 1.000000
0.548225 0.000000 1.000000
0.916852 0.000000 1.000000
1.000000 0.000000 1.000000
0.000000 0.166758 1.000000
0.161327 0.161327 1.000000
0.529954 0.150813 1.000000
0.898581 0.140300 1.000000
1.000000 0.134868 1.000000
0.000000 0.510530 1.000000
0.125958 0.505099 1.000000
0.494585 0.494585 1.000000
0.863212 0.484071 1.000000
1.000000 0.478640 1.000000
0.000000 0.854302 1.000000
0.090589 0.848870 1.000000
0.459216 0.838357 1.000000
0.827843 0.827843 1.000000
1.000000 0.822412 1.000000
0.000000 1.000000 1.000000
0.072318 1.000000 1.000000
0.440945 1.000000 1.000000
0.809572 1.000000 1.000000
1.000000 1.000000 1.000000
