public/luts/mediageekz-punchy.cube
# Mediageekz Punchy
TITLE "Mediageekz Punchy"
DOMAIN_MIN 0.0 0.0 0.0
DOMAIN_MAX 1.0 1.0 1.0
LUT_3D_SIZE 17
0.000000 0.000000 0.000000
0.021156 0.000000 0.000000
0.061802 0.000000 0.000000
0.119154 0.000000 0.000000
0.190428 0.000000 0.000000
0.272840 0.000000 0.000000
0.363604 0.000000 0.000000
0.459937 0.000000 0.000000
0.559055 0.000000 0.000000
0.658173 0.000000 0.000000
0.754506 0.000000 0.000000
0.845270 0.000000 0.000000
0.927682 0.000000 0.000000
0.998956 0.000000 0.000000
1.000000 0.000000 0.000000
1.000000 0.000000 0.000000
1.000000 0.000000 0.000000
0.000000 0.019729 0.000000
0.019126 0.019126 0.000000
0.059772 0.017967 0.000000
0.117124 0.016331 0.000000
0.188398 0.014298 0.000000
0.270810 0.011947 0.000000
0.361574 0.009359 0.000000
0.457908 0.006611 0.000000
0.557025 0.003784 0.000000
0.656143 0.000957 0.000000
0.752476 0.000000 0.000000
0.843241 0.000000 0.000000
0.925652 0.000000 0.000000
0.996926 0.000000 0.000000
1.000000 0.000000 0.000000
1.000000 0.000000 0.000000
1.000000 0.000000 0.000000
0.000000 0.057635 0.000000
0.015226 0.057031 0.000000
0.055872 0.055872 0.000000
0.113224 0.054236 0.000000
0.184498 0.052203 0.000000
0.266910 0.049853 0.000000
0.357674 0.047264 0.000000
0.454008 0.044517 0.000000
0.553125 0.041690 0.000000
0.652243 0.038863 0.000000
0.748576 0.036115 0.000000
0.839341 0.033526 0.000000
0.921752 0.031176 0.000000
0.993026 0.029143 0.000000
1.000000 0.027507 0.000000
1.000000 0.026348 0.000000
1.000000 0.025745 0.000000
0.000000 0.111120 0.000000
0.009723 0.110517 0.000000
0.050369 0.109357 0.000000
0.107722 0.107722 0.000000
0.178996 0.105689 0.000000
0.261407 0.103338 0.000000
0.352172 0.100749 0.000000
0.448505 0.098002 0.000000
0.547622 0.095175 0.000000
0.646740 0.092348 0.000000
0.743073 0.089600 0.000000
0.833838 0.087012 0.000000
0.916249 0.084661 0.000000
0.987523 0.082628 0.000000
1.000000 0.080993 0.000000
1.000000 0.079833 0.000000
1.000000 0.079230 0.000000
0.000000 0.177588 0.000000
0.002885 0.176985 0.000000
0.043531 0.175826 0.000000
0.100883 0.174190 0.000000
0.172157 0.172157 0.000000
0.254568 0.169806 0.000000
0.345333 0.167218 0.000000
0.441666 0.164470 0.000000
0.540784 0.161643 0.000000
0.639901 0.158816 0.000000
0.736235 0.156069 0.000000
0.826999 0.153480 0.000000
0.909411 0.151130 0.000000
0.980685 0.149097 0.000000
1.000000 0.147461 0.000000
1.000000 0.146302 0.000000
1.000000 0.145698 0.000000
0.000000 0.254443 0.000000
0.000000 0.253840 0.000000
0.035623 0.252680 0.000000
0.092976 0.251045 0.000000
0.164250 0.249012 0.000000
0.246661 0.246661 0.000000
0.337426 0.244073 0.000000
0.433759 0.241325 0.000000
0.532877 0.238498 0.000000
0.631994 0.235671 0.000000
0.728328 0.232924 0.000000
0.819092 0.230335 0.000000
0.901504 0.227984 0.000000
0.972778 0.225951 0.000000
1.000000 0.224316 0.000000
1.000000 0.223156 0.000000
1.000000 0.222553 0.000000
0.000000 0.339088 0.000000
0.000000 0.338484 0.000000
0.026915 0.337325 0.000000
0.084267 0.335689 0.000000
0.155541 0.333656 0.000000
0.237953 0.331306 0.000000
0.328717 0.328717 0.000000
0.425050 0.325970 0.000000
0.524168 0.323143 0.000000
0.623286 0.320316 0.000000
0.719619 0.317568 0.000000
0.810383 0.314979 0.000000
0.892795 0.312629 0.000000
0.964069 0.310596 0.000000
1.000000 0.308960 0.000000
1.000000 0.307801 0.000000
1.000000 0.307198 0.000000
0.000000 0.428926 0.000000
0.000000 0.428322 0.000000
0.017672 0.427163 0.000000
0.075024 0.425527 0.000000
0.146298 0.423494 0.000000
0.228710 0.421144 0.000000
0.319474 0.418555 0.000000
0.415807 0.415807 0.000000
0.514925 0.412981 0.000000
0.614043 0.410154 0.000000
0.710376 0.407406 0.000000
0.801141 0.404817 0.000000
0.883552 0.402467 0.000000
0.954826 0.400434 0.000000
1.000000 0.398798 0.000000
1.000000 0.397639 0.000000
1.000000 0.397036 0.000000
0.000000 0.521360 0.000000
0.000000 0.520757 0.000000
0.008162 0.519597 0.000000
0.065514 0.517962 0.000000
0.136788 0.515929 0.000000
0.219200 0.513578 0.000000
0.309964 0.510990 0.000000
0.406297 0.508242 0.000000
0.505415 0.505415 0.000000
0.604533 0.502588 0.000000
0.700866 0.499840 0.000000
0.791630 0.497252 0.000000
0.874042 0.494901 0.000000
0.945316 0.492868 0.000000
1.000000 0.491233 0.000000
1.000000 0.490073 0.000000
1.000000 0.489470 0.000000
0.000000 0.613794 0.000000
0.000000 0.613191 0.000000
0.000000 0.612032 0.000000
0.056004 0.610396 0.000000
0.127278 0.608363 0.000000
0.209689 0.606013 0.000000
0.300454 0.603424 0.000000
0.396787 0.600676 0.000000
0.495905 0.597849 0.000000
0.595023 0.595023 0.000000
0.691356 0.592275 0.000000
0.782120 0.589686 0.000000
0.864532 0.587336 0.000000
0.935806 0.585303 0.000000
0.993158 0.583667 0.000000
1.000000 0.582508 0.000000
1.000000 0.581904 0.000000
0.000000 0.703632 0.000000
0.000000 0.703029 0.000000
0.000000 0.701870 0.000000
0.046761 0.700234 0.000000
0.118035 0.698201 0.000000
0.200447 0.695851 0.000000
0.291211 0.693262 0.000000
0.387544 0.690514 0.000000
0.486662 0.687687 0.000000
0.585780 0.684860 0.000000
0.682113 0.682113 0.000000
0.772877 0.679524 0.000000
0.855289 0.677174 0.000000
0.926563 0.675141 0.000000
0.983915 0.673505 0.000000
1.000000 0.672346 0.000000
1.000000 0.671742 0.000000
0.000000 0.788277 0.000000
0.000000 0.787674 0.000000
0.000000 0.786514 0.000000
0.038052 0.784879 0.000000
0.109326 0.782846 0.000000
0.191738 0.780495 0.000000
0.282502 0.777906 0.000000
0.378836 0.775159 0.000000
0.477953 0.772332 0.000000
0.577071 0.769505 0.000000
0.673404 0.766757 0.000000
0.764169 0.764169 0.000000
0.846580 0.761818 0.000000
0.917854 0.759785 0.000000
0.975207 0.758150 0.000000
1.000000 0.756990 0.000000
1.000000 0.756387 0.000000
0.000000 0.865132 0.000000
0.000000 0.864528 0.000000
0.000000 0.863369 0.000000
0.030145 0.861733 0.000000
0.101419 0.859700 0.000000
0.183831 0.857350 0.000000
0.274595 0.854761 0.000000
0.370929 0.852014 0.000000
0.470046 0.849187 0.000000
0.569164 0.846360 0.000000
0.665497 0.843612 0.000000
0.756262 0.841024 0.000000
0.838673 0.838673 0.000000
0.909947 0.836640 0.000000
0.967299 0.835004 0.000000
1.000000 0.833845 0.000000
1.000000 0.833242 0.000000
0.000000 0.931600 0.000000
0.000000 0.930997 0.000000
0.000000 0.929837 0.000000
0.023307 0.928202 0.000000
0.094581 0.926169 0.000000
0.176992 0.923818 0.000000
0.267757 0.921230 0.000000
0.364090 0.918482 0.000000
0.463208 0.915655 0.000000
0.562325 0.912828 0.000000
0.658658 0.910081 0.000000
0.749423 0.907492 0.000000
0.831834 0.905141 0.000000
0.903108 0.903108 0.000000
0.960461 0.901473 0.000000
1.000000 0.900313 0.000000
1.000000 0.899710 0.000000
0.000000 0.985085 0.000000
0.000000 0.984482 0.000000
0.000000 0.983323 0.000000
0.017804 0.981687 0.000000
0.089078 0.979654 0.000000
0.171489 0.977304 0.000000
0.262254 0.974715 0.000000
0.358587 0.971967 0.000000
0.457705 0.969140 0.000000
0.556822 0.966313 0.000000
0.653156 0.963566 0.000000
0.743920 0.960977 0.000000
0.826332 0.958627 0.000000
0.897606 0.956594 0.000000
0.954958 0.954958 0.000000
0.995604 0.953799 0.000000
1.000000 0.953195 0.000000
0.000000 1.000000 0.000000
0.000000 1.000000 0.000000
0.000000 1.000000 0.000000
0.013904 1.000000 0.000000
0.085178 1.000000 0.000000
0.167589 1.000000 0.000000
0.258354 1.000000 0.000000
0.354687 1.000000 0.000000
0.453805 1.000000 0.000000
0.552922 1.000000 0.000000
0.649256 1.000000 0.000000
0.740020 0.998883 0.000000
0.822432 0.996532 0.000000
0.893706 0.994499 0.000000
0.951058 0.992863 0.000000
0.991704 0.991704 0.000000
1.000000 0.991101 0.000000
0.000000 1.000000 0.000000
0.000000 1.000000 0.000000
0.000000 1.000000 0.000000
0.011874 1.000000 0.000000
0.083148 1.000000 0.000000
0.165560 1.000000 0.000000
0.256324 1.000000 0.000000
0.352657 1.000000 0.000000
0.451775 1.000000 0.000000
0.550893 1.000000 0.000000
0.647226 1.000000 0.000000
0.737990 1.000000 0.000000
0.820402 1.000000 0.000000
0.891676 1.000000 0.000000
0.949028 1.000000 0.000000
0.989674 1.000000 0.000000
1.000000 1.000000 0.000000
0.000000 0.000000 0.021554
0.020951 0.000000 0.020951
0.061597 0.000000 0.019791
0.118949 0.000000 0.018156
0.190223 0.000000 0.016123
0.272635 0.000000 0.013772
0.363399 0.000000 0.011184
0.459732 0.000000 0.008436
0.558850 0.000000 0.005609
0.657968 0.000000 0.002782
0.754301 0.000000 0.000035
0.845066 0.000000 0.000000
0.927477 0.000000 0.000000
0.998751 0.000000 0.000000
1.000000 0.000000 0.000000
1.000000 0.000000 0.000000
1.000000 0.000000 0.000000
0.000000 0.019524 0.019524
0.018921 0.018921 0.018921
0.059567 0.017762 0.017762
0.116919 0.016126 0.016126
0.188193 0.014093 0.014093
0.270605 0.011743 0.011743
0.361369 0.009154 0.009154
0.457703 0.006406 0.006406
0.556820 0.003579 0.003579
0.655938 0.000752 0.000752
0.752271 0.000000 0.000000
0.843036 0.000000 0.000000
0.925447 0.000000 0.000000
0.996721 0.000000 0.000000
1.000000 0.000000 0.000000
1.000000 0.000000 0.000000
1.000000 0.000000 0.000000
0.000000 0.057430 0.015624
0.015021 0.056826 0.015021
0.055667 0.055667 0.013862
0.113019 0.054031 0.012226
0.184293 0.051999 0.010193
0.266705 0.049648 0.007843
0.357469 0.047059 0.005254
0.453803 0.044312 0.002506
0.552920 0.041485 0.000000
0.652038 0.038658 0.000000
0.748371 0.035910 0.000000
0.839136 0.033322 0.000000
0.921547 0.030971 0.000000
0.992821 0.028938 0.000000
1.000000 0.027302 0.000000
1.000000 0.026143 0.000000
1.000000 0.025540 0.000000
0.000000 0.110915 0.010122
0.009518 0.110312 0.009518
0.050164 0.109152 0.008359
0.107517 0.107517 0.006723
0.178791 0.105484 0.004690
0.261202 0.103133 0.002340
0.351967 0.100545 0.000000
0.448300 0.097797 0.000000
0.547418 0.094970 0.000000
0.646535 0.092143 0.000000
0.742868 0.089396 0.000000
0.833633 0.086807 0.000000
0.916044 0.084456 0.000000
0.987318 0.082423 0.000000
1.000000 0.080788 0.000000
1.000000 0.079628 0.000000
1.000000 0.079025 0.000000
0.000000 0.177383 0.003283
0.002680 0.176780 0.002680
0.043326 0.175621 0.001520
0.100678 0.173985 0.000000
0.171952 0.171952 0.000000
0.254364 0.169602 0.000000
0.345128 0.167013 0.000000
0.441461 0.164265 0.000000
0.540579 0.161438 0.000000
0.639697 0.158611 0.000000
0.736030 0.155864 0.000000
0.826794 0.153275 0.000000
0.909206 0.150925 0.000000
0.980480 0.148892 0.000000
1.000000 0.147256 0.000000
1.000000 0.146097 0.000000
1.000000 0.145493 0.000000
0.000000 0.254238 0.000000
0.000000 0.253635 0.000000
0.035419 0.252475 0.000000
0.092771 0.250840 0.000000
0.164045 0.248807 0.000000
0.246456 0.246456 0.000000
0.337221 0.243868 0.000000
0.433554 0.241120 0.000000
0.532672 0.238293 0.000000
0.631789 0.235466 0.000000
0.728123 0.232719 0.000000
0.818887 0.230130 0.000000
0.901299 0.227779 0.000000
0.972573 0.225747 0.000000
1.000000 0.224111 0.000000
1.000000 0.222952 0.000000
1.000000 0.222348 0.000000
0.000000 0.338883 0.000000
0.000000 0.338279 0.000000
0.026710 0.337120 0.000000
0.084062 0.335484 0.000000
0.155336 0.333451 0.000000
0.237748 0.331101 0.000000
0.328512 0.328512 0.000000
0.424846 0.325765 0.000000
0.523963 0.322938 0.000000
0.623081 0.320111 0.000000
0.719414 0.317363 0.000000
0.810179 0.314774 0.000000
0.892590 0.312424 0.000000
0.963864 0.310391 0.000000
1.000000 0.308755 0.000000
1.000000 0.307596 0.000000
1.000000 0.306993 0.000000
0.000000 0.428721 0.000000
0.000000 0.428117 0.000000
0.017467 0.426958 0.000000
0.074819 0.425322 0.000000
0.146093 0.423289 0.000000
0.228505 0.420939 0.000000
0.319269 0.418350 0.000000
0.415603 0.415603 0.000000
0.514720 0.412776 0.000000
0.613838 0.409949 0.000000
0.710171 0.407201 0.000000
0.800936 0.404612 0.000000
0.883347 0.402262 0.000000
0.954621 0.400229 0.000000
1.000000 0.398593 0.000000
1.000000 0.397434 0.000000
1.000000 0.396831 0.000000
0.000000 0.521155 0.000000
0.000000 0.520552 0.000000
0.007957 0.519392 0.000000
0.065309 0.517757 0.000000
0.136583 0.515724 0.000000
0.218995 0.513373 0.000000
0.309759 0.510785 0.000000
0.406092 0.508037 0.000000
0.505210 0.505210 0.000000
0.604328 0.502383 0.000000
0.700661 0.499636 0.000000
0.791426 0.497047 0.000000
0.873837 0.494696 0.000000
0.945111 0.492664 0.000000
1.000000 0.491028 0.000000
1.000000 0.489868 0.000000
1.000000 0.489265 0.000000
0.000000 0.613590 0.000000
0.000000 0.612986 0.000000
0.000000 0.611827 0.000000
0.055799 0.610191 0.000000
0.127073 0.608158 0.000000
0.209485 0.605808 0.000000
0.300249 0.603219 0.000000
0.396582 0.600472 0.000000
0.495700 0.597645 0.000000
0.594818 0.594818 0.000000
0.691151 0.592070 0.000000
0.781915 0.589481 0.000000
0.864327 0.587131 0.000000
0.935601 0.585098 0.000000
0.992953 0.583462 0.000000
1.000000 0.582303 0.000000
1.000000 0.581700 0.000000
0.000000 0.703427 0.000000
0.000000 0.702824 0.000000
0.000000 0.701665 0.000000
0.046556 0.700029 0.000000
0.117830 0.697996 0.000000
0.200242 0.695646 0.000000
0.291006 0.693057 0.000000
0.387339 0.690309 0.000000
0.486457 0.687482 0.000000
0.585575 0.684655 0.000000
0.681908 0.681908 0.000000
0.772672 0.679319 0.000000
0.855084 0.676969 0.000000
0.926358 0.674936 0.000000
0.983710 0.673300 0.000000
1.000000 0.672141 0.000000
1.000000 0.671537 0.000000
0.000000 0.788072 0.000000
0.000000 0.787469 0.000000
0.000000 0.786309 0.000000
0.037847 0.784674 0.000000
0.109122 0.782641 0.000000
0.191533 0.780290 0.000000
0.282298 0.777702 0.000000
0.378631 0.774954 0.000000
0.477748 0.772127 0.000000
0.576866 0.769300 0.000000
0.673199 0.766553 0.000000
0.763964 0.763964 0.000000
0.846375 0.761613 0.000000
0.917649 0.759580 0.000000
0.975002 0.757945 0.000000
1.000000 0.756785 0.000000
1.000000 0.756182 0.000000
0.000000 0.864927 0.000000
0.000000 0.864323 0.000000
0.000000 0.863164 0.000000
0.029940 0.861528 0.000000
0.101214 0.859496 0.000000
0.183626 0.857145 0.000000
0.274390 0.854556 0.000000
0.370724 0.851809 0.000000
0.469841 0.848982 0.000000
0.568959 0.846155 0.000000
0.665292 0.843407 0.000000
0.756057 0.840819 0.000000
0.838468 0.838468 0.000000
0.909742 0.836435 0.000000
0.967094 0.834800 0.000000
1.000000 0.833640 0.000000
1.000000 0.833037 0.000000
0.000000 0.931395 0.000000
0.000000 0.930792 0.000000
0.000000 0.929632 0.000000
0.023102 0.927997 0.000000
0.094376 0.925964 0.000000
0.176787 0.923613 0.000000
0.267552 0.921025 0.000000
0.363885 0.918277 0.000000
0.463003 0.915450 0.000000
0.562120 0.912623 0.000000
0.658454 0.909876 0.000000
0.749218 0.907287 0.000000
0.831630 0.904936 0.000000
0.902904 0.902904 0.000000
0.960256 0.901268 0.000000
1.000000 0.900109 0.000000
1.000000 0.899505 0.000000
0.000000 0.984880 0.000000
0.000000 0.984277 0.000000
0.000000 0.983118 0.000000
0.017599 0.981482 0.000000
0.088873 0.979449 0.000000
0.171284 0.977099 0.000000
0.262049 0.974510 0.000000
0.358382 0.971762 0.000000
0.457500 0.968935 0.000000
0.556617 0.966108 0.000000
0.652951 0.963361 0.000000
0.743715 0.960772 0.000000
0.826127 0.958422 0.000000
0.897401 0.956389 0.000000
0.954753 0.954753 0.000000
0.995399 0.953594 0.000000
1.000000 0.952990 0.000000
0.000000 1.000000 0.000000
0.000000 1.000000 0.000000
0.000000 1.000000 0.000000
0.013699 1.000000 0.000000
0.084973 1.000000 0.000000
0.167385 1.000000 0.000000
0.258149 1.000000 0.000000
0.354482 1.000000 0.000000
0.453600 1.000000 0.000000
0.552718 1.000000 0.000000
0.649051 1.000000 0.000000
0.739815 0.998678 0.000000
0.822227 0.996327 0.000000
0.893501 0.994294 0.000000
0.950853 0.992659 0.000000
0.991499 0.991499 0.000000
1.000000 0.990896 0.000000
0.000000 1.000000 0.000000
0.000000 1.000000 0.000000
0.000000 1.000000 0.000000
0.011669 1.000000 0.000000
0.082943 1.000000 0.000000
0.165355 1.000000 0.000000
0.256119 1.000000 0.000000
0.352452 1.000000 0.000000
0.451570 1.000000 0.000000
0.550688 1.000000 0.000000
0.647021 1.000000 0.000000
0.737786 1.000000 0.000000
0.820197 1.000000 0.000000
0.891471 1.000000 0.000000
0.948823 1.000000 0.000000
0.989469 1.000000 0.000000
1.000000 1.000000 0.000000
0.000000 0.000000 0.062966
0.020557 0.000000 0.062362
0.061203 0.000000 0.061203
0.118555 0.000000 0.059567
0.189829 0.000000 0.057535
0.272241 0.000000 0.055184
0.363006 0.000000 0.052595
0.459339 0.000000 0.049848
0.558456 0.000000 0.047021
0.657574 0.000000 0.044194
0.753907 0.000000 0.041446
0.844672 0.000000 0.038858
0.927083 0.000000 0.036507
0.998357 0.000000 0.034474
1.000000 0.000000 0.032839
1.000000 0.000000 0.031679
1.000000 0.000000 0.031076
0.000000 0.019131 0.060936
0.018527 0.018527 0.060333
0.059173 0.017368 0.059173
0.116526 0.015732 0.057538
0.187800 0.013699 0.055505
0.270211 0.011349 0.053154
0.360976 0.008760 0.050566
0.457309 0.006013 0.047818
0.556427 0.003186 0.044991
0.655544 0.000359 0.042164
0.751877 0.000000 0.039416
0.842642 0.000000 0.036828
0.925053 0.000000 0.034477
0.996327 0.000000 0.032444
1.000000 0.000000 0.030809
1.000000 0.000000 0.029649
1.000000 0.000000 0.029046
0.000000 0.057036 0.057036
0.014627 0.056433 0.056433
0.055273 0.055273 0.055273
0.112626 0.053638 0.053638
0.183900 0.051605 0.051605
0.266311 0.049254 0.049254
0.357076 0.046666 0.046666
0.453409 0.043918 0.043918
0.552527 0.041091 0.041091
0.651644 0.038264 0.038264
0.747978 0.035517 0.035517
0.838742 0.032928 0.032928
0.921154 0.030577 0.030577
0.992428 0.028545 0.028545
1.000000 0.026909 0.026909
1.000000 0.025749 0.025749
1.000000 0.025146 0.025146
0.000000 0.110521 0.051533
0.009124 0.109918 0.050930
0.049771 0.108759 0.049771
0.107123 0.107123 0.048135
0.178397 0.105090 0.046102
0.260808 0.102740 0.043752
0.351573 0.100151 0.041163
0.447906 0.097403 0.038415
0.547024 0.094576 0.035588
0.646141 0.091749 0.032761
0.742475 0.089002 0.030014
0.833239 0.086413 0.027425
0.915651 0.084063 0.025075
0.986925 0.082030 0.023042
1.000000 0.080394 0.021406
1.000000 0.079235 0.020247
1.000000 0.078631 0.019643
0.000000 0.176990 0.044695
0.002286 0.176386 0.044091
0.042932 0.175227 0.042932
0.100284 0.173591 0.041296
0.171558 0.171558 0.039263
0.253970 0.169208 0.036913
0.344734 0.166619 0.034324
0.441068 0.163872 0.031577
0.540185 0.161045 0.028750
0.639303 0.158218 0.025923
0.735636 0.155470 0.023175
0.826401 0.152881 0.020586
0.908812 0.150531 0.018236
0.980086 0.148498 0.016203
1.000000 0.146862 0.014567
1.000000 0.145703 0.013408
1.000000 0.145100 0.012805
0.000000 0.253844 0.036788
0.000000 0.253241 0.036184
0.035025 0.252082 0.035025
0.092377 0.250446 0.033389
0.163651 0.248413 0.031356
0.246063 0.246063 0.029006
0.336827 0.243474 0.026417
0.433160 0.240726 0.023669
0.532278 0.237899 0.020843
0.631396 0.235072 0.018016
0.727729 0.232325 0.015268
0.818493 0.229736 0.012679
0.900905 0.227386 0.010329
0.972179 0.225353 0.008296
1.000000 0.223717 0.006660
1.000000 0.222558 0.005501
1.000000 0.221954 0.004898
0.000000 0.338489 0.028079
0.000000 0.337886 0.027476
0.026316 0.336726 0.026316
0.083668 0.335091 0.024680
0.154943 0.333058 0.022648
0.237354 0.330707 0.020297
0.328119 0.328119 0.017708
0.424452 0.325371 0.014961
0.523569 0.322544 0.012134
0.622687 0.319717 0.009307
0.719020 0.316970 0.006559
0.809785 0.314381 0.003971
0.892196 0.312030 0.001620
0.963470 0.309997 0.000000
1.000000 0.308362 0.000000
1.000000 0.307202 0.000000
1.000000 0.306599 0.000000
0.000000 0.428327 0.018836
0.000000 0.427724 0.018233
0.017073 0.426564 0.017073
0.074426 0.424928 0.015438
0.145700 0.422896 0.013405
0.228111 0.420545 0.011054
0.318876 0.417956 0.008465
0.415209 0.415209 0.005718
0.514326 0.412382 0.002891
0.613444 0.409555 0.000064
0.709777 0.406807 0.000000
0.800542 0.404219 0.000000
0.882953 0.401868 0.000000
0.954227 0.399835 0.000000
1.000000 0.398200 0.000000
1.000000 0.397040 0.000000
1.000000 0.396437 0.000000
0.000000 0.520761 0.009326
0.000000 0.520158 0.008722
0.007563 0.518999 0.007563
0.064915 0.517363 0.005927
0.136189 0.515330 0.003895
0.218601 0.512980 0.001544
0.309366 0.510391 0.000000
0.405699 0.507643 0.000000
0.504816 0.504816 0.000000
0.603934 0.501989 0.000000
0.700267 0.499242 0.000000
0.791032 0.496653 0.000000
0.873443 0.494303 0.000000
0.944717 0.492270 0.000000
1.000000 0.490634 0.000000
1.000000 0.489475 0.000000
1.000000 0.488871 0.000000
0.000000 0.613196 0.000000
0.000000 0.612592 0.000000
0.000000 0.611433 0.000000
0.055405 0.609797 0.000000
0.126679 0.607765 0.000000
0.209091 0.605414 0.000000
0.299855 0.602825 0.000000
0.396189 0.600078 0.000000
0.495306 0.597251 0.000000
0.594424 0.594424 0.000000
0.690757 0.591676 0.000000
0.781522 0.589088 0.000000
0.863933 0.586737 0.000000
0.935207 0.584704 0.000000
0.992560 0.583069 0.000000
1.000000 0.581909 0.000000
1.000000 0.581306 0.000000
0.000000 0.703034 0.000000
0.000000 0.702430 0.000000
0.000000 0.701271 0.000000
0.046162 0.699635 0.000000
0.117436 0.697602 0.000000
0.199848 0.695252 0.000000
0.290612 0.692663 0.000000
0.386946 0.689916 0.000000
0.486063 0.687089 0.000000
0.585181 0.684262 0.000000
0.681514 0.681514 0.000000
0.772279 0.678925 0.000000
0.854690 0.676575 0.000000
0.925964 0.674542 0.000000
0.983317 0.672906 0.000000
1.000000 0.671747 0.000000
1.000000 0.671144 0.000000
0.000000 0.787678 0.000000
0.000000 0.787075 0.000000
0.000000 0.785916 0.000000
0.037454 0.784280 0.000000
0.108728 0.782247 0.000000
0.191139 0.779897 0.000000
0.281904 0.777308 0.000000
0.378237 0.774560 0.000000
0.477355 0.771733 0.000000
0.576472 0.768906 0.000000
0.672806 0.766159 0.000000
0.763570 0.763570 0.000000
0.845982 0.761220 0.000000
0.917256 0.759187 0.000000
0.974608 0.757551 0.000000
1.000000 0.756392 0.000000
1.000000 0.755788 0.000000
0.000000 0.864533 0.000000
0.000000 0.863930 0.000000
0.000000 0.862770 0.000000
0.029547 0.861135 0.000000
0.100821 0.859102 0.000000
0.183232 0.856751 0.000000
0.273997 0.854163 0.000000
0.370330 0.851415 0.000000
0.469448 0.848588 0.000000
0.568565 0.845761 0.000000
0.664898 0.843014 0.000000
0.755663 0.840425 0.000000
0.838074 0.838074 0.000000
0.909348 0.836042 0.000000
0.966701 0.834406 0.000000
1.000000 0.833247 0.000000
1.000000 0.832643 0.000000
0.000000 0.931001 0.000000
0.000000 0.930398 0.000000
0.000000 0.929239 0.000000
0.022708 0.927603 0.000000
0.093982 0.925570 0.000000
0.176394 0.923220 0.000000
0.267158 0.920631 0.000000
0.363491 0.917883 0.000000
0.462609 0.915056 0.000000
0.561727 0.912229 0.000000
0.658060 0.909482 0.000000
0.748824 0.906893 0.000000
0.831236 0.904543 0.000000
0.902510 0.902510 0.000000
0.959862 0.900874 0.000000
1.000000 0.899715 0.000000
1.000000 0.899111 0.000000
0.000000 0.984487 0.000000
0.000000 0.983883 0.000000
0.000000 0.982724 0.000000
0.017205 0.981088 0.000000
0.088479 0.979055 0.000000
0.170891 0.976705 0.000000
0.261655 0.974116 0.000000
0.357989 0.971369 0.000000
0.457106 0.968542 0.000000
0.556224 0.965715 0.000000
0.652557 0.962967 0.000000
0.743322 0.960378 0.000000
0.825733 0.958028 0.000000
0.897007 0.955995 0.000000
0.954359 0.954359 0.000000
0.995005 0.953200 0.000000
1.000000 0.952597 0.000000
0.000000 1.000000 0.000000
0.000000 1.000000 0.000000
0.000000 1.000000 0.000000
0.013305 1.000000 0.000000
0.084579 1.000000 0.000000
0.166991 1.000000 0.000000
0.257755 1.000000 0.000000
0.354089 1.000000 0.000000
0.453206 1.000000 0.000000
0.552324 1.000000 0.000000
0.648657 1.000000 0.000000
0.739422 0.998284 0.000000
0.821833 0.995933 0.000000
0.893107 0.993901 0.000000
0.950459 0.992265 0.000000
0.991106 0.991106 0.000000
1.000000 0.990502 0.000000
0.000000 1.000000 0.000000
0.000000 1.000000 0.000000
0.000000 1.000000 0.000000
0.011275 1.000000 0.000000
0.082549 1.000000 0.000000
0.164961 1.000000 0.000000
0.255726 1.000000 0.000000
0.352059 1.000000 0.000000
0.451176 1.000000 0.000000
0.550294 1.000000 0.000000
0.646627 1.000000 0.000000
0.737392 1.000000 0.000000
0.819803 1.000000 0.000000
0.891077 1.000000 0.000000
0.948430 1.000000 0.000000
0.989076 1.000000 0.000000
1.000000 1.000000 0.000000
0.000000 0.000000 0.121398
0.020002 0.000000 0.120795
0.060648 0.000000 0.119636
0.118000 0.000000 0.118000
0.189274 0.000000 0.115967
0.271685 0.000000 0.113617
0.362450 0.000000 0.111028
0.458783 0.000000 0.108280
0.557901 0.000000 0.105453
0.657018 0.000000 0.102626
0.753352 0.000000 0.099879
0.844116 0.000000 0.097290
0.926528 0.000000 0.094940
0.997802 0.000000 0.092907
1.000000 0.000000 0.091271
1.000000 0.000000 0.090112
1.000000 0.000000 0.089508
