public/luts/mediageekz-punchy.cube
# Mediageekz Punchy
TITLE "Mediageekz Punchy"
DOMAIN_MIN 0.0 0.0 0.0
DOMAIN_MAX 1.0 1.0 1.0
LUT_3D_SIZE 9
0.000000 0.000000 0.000000
0.061802 0.000000 0.000000
0.190428 0.000000 0.000000
0.363604 0.000000 0.000000
0.559055 0.000000 0.000000
0.754506 0.000000 0.000000
0.927682 0.000000 0.000000
1.000000 0.000000 0.000000
1.000000 0.000000 0.000000
0.000000 0.057635 0.000000
0.055872 0.055872 0.000000
0.184498 0.052203 0.000000
0.357674 0.047264 0.000000
0.553125 0.041690 0.000000
0.748576 0.036115 0.000000
0.921752 0.031176 0.000000
1.000000 0.027507 0.000000
1.000000 0.025745 0.000000
0.000000 0.177588 0.000000
0.043531 0.175826 0.000000
0.172157 0.172157 0.000000
0.345333 0.167218 0.000000
0.540784 0.161643 0.000000
0.736235 0.156069 0.000000
0.909411 0.151130 0.000000
1.000000 0.147461 0.000000
1.000000 0.145698 0.000000
0.000000 0.339088 0.000000
0.026915 0.337325 0.000000
0.155541 0.333656 0.000000
0.328717 0.328717 0.000000
0.524168 0.323143 0.000000
0.719619 0.317568 0.000000
0.892795 0.312629 0.000000
1.000000 0.308960 0.000000
1.000000 0.307198 0.000000
0.000000 0.521360 0.000000
0.008162 0.519597 0.000000
0.136788 0.515929 0.000000
0.309964 0.510990 0.000000
0.505415 0.505415 0.000000
0.700866 0.499840 0.000000
0.874042 0.494901 0.000000
1.000000 0.491233 0.000000
1.000000 0.489470 0.000000
0.000000 0.703632 0.000000
0.000000 0.701870 0.000000
0.118035 0.698201 0.000000
0.291211 0.693262 0.000000
0.486662 0.687687 0.000000
0.682113 0.682113 0.000000
0.855289 0.677174 0.000000
0.983915 0.673505 0.000000
1.000000 0.671742 0.000000
0.000000 0.865132 0.000000
0.000000 0.863369 0.000000
0.101419 0.859700 0.000000
0.274595 0.854761 0.000000
0.470046 0.849187 0.000000
0.665497 0.843612 0.000000
0.838673 0.838673 0.000000
0.967299 0.835004 0.000000
1.000000 0.833242 0.000000
0.000000 0.985085 0.000000
0.000000 0.983323 0.000000
0.089078 0.979654 0.000000
0.262254 0.974715 0.000000
0.457705 0.969140 0.000000
0.653156 0.963566 0.000000
0.826332 0.958627 0.000000
0.954958 0.954958 0.000000
1.000000 0.953195 0.000000
0.000000 1.000000 0.000000
0.000000 1.000000 0.000000
0.083148 1.000000 0.000000
0.256324 1.000000 0.000000
0.451775 1.000000 0.000000
0.647226 1.000000 0.000000
0.820402 1.000000 0.000000
0.949028 1.000000 0.000000
1.000000 1.000000 0.000000
0.000000 0.000000 0.062966
0.061203 0.000000 0.061203
0.189829 0.000000 0.057535
0.363006 0.000000 0.052595
0.558456 0.000000 0.047021
0.753907 0.000000 0.041446
0.927083 0.000000 0.036507
1.000000 0.000000 0.032839
1.000000 0.000000 0.031076
0.000000 0.057036 0.057036
0.055273 0.055273 0.055273
0.183900 0.051605 0.051605
0.357076 0.046666 0.046666
0.552527 0.041091 0.041091
0.747978 0.035517 0.035517
0.921154 0.030577 0.030577
1.000000 0.026909 0.026909
1.000000 0.025146 0.025146
0.000000 0.176990 0.044695
0.042932 0.175227 0.042932
0.171558 0.171558 0.039263
0.344734 0.166619 0.034324
0.540185 0.161045 0.028750
0.735636 0.155470 0.023175
0.908812 0.150531 0.018236
1.000000 0.146862 0.014567
1.000000 0.145100 0.012805
0.000000 0.338489 0.028079
0.026316 0.336726 0.026316
0.154943 0.333058 0.022648
0.328119 0.328119 0.017708
0.523569 0.322544 0.012134
0.719020 0.316970 0.006559
0.892196 0.312030 0.001620
1.000000 0.308362 0.000000
1.000000 0.306599 0.000000
0.000000 0.520761 0.009326
0.007563 0.518999 0.007563
0.136189 0.515330 0.003895
0.309366 0.510391 0.000000
0.504816 0.504816 0.000000
0.700267 0.499242 0.000000
0.873443 0.494303 0.000000
1.000000 0.490634 0.000000
1.000000 0.488871 0.000000
0.000000 0.703034 0.000000
0.000000 0.701271 0.000000
0.117436 0.697602 0.000000
0.290612 0.692663 0.000000
0.486063 0.687089 0.000000
0.681514 0.681514 0.000000
0.854690 0.676575 0.000000
0.983317 0.672906 0.000000
1.000000 0.671144 0.000000
0.000000 0.864533 0.000000
0.000000 0.862770 0.000000
0.100821 0.859102 0.000000
0.273997 0.854163 0.000000
0.469448 0.848588 0.000000
0.664898 0.843014 0.000000
0.838074 0.838074 0.000000
0.966701 0.834406 0.000000
1.000000 0.832643 0.000000
0.000000 0.984487 0.000000
0.000000 0.982724 0.000000
0.088479 0.979055 0.000000
0.261655 0.974116 0.000000
0.457106 0.968542 0.000000
0.652557 0.962967 0.000000
0.825733 0.958028 0.000000
0.954359 0.954359 0.000000
1.000000 0.952597 0.000000
0.000000 1.000000 0.000000
0.000000 1.000000 0.000000
0.082549 1.000000 0.000000
0.255726 1.000000 0.000000
0.451176 1.000000 0.000000
0.646627 1.000000 0.000000
0.819803 1.000000 0.000000
0.948430 1.000000 0.000000
1.000000 1.000000 0.000000
0.000000 0.000000 0.194015
0.059957 0.000000 0.192252
0.188584 0.000000 0.188584
0.361760 0.000000 0.183644
0.557211 0.000000 0.178070
0.752661 0.000000 0.172495
0.925837 0.000000 0.167556
1.000000 0.000000 0.163888
1.000000 0.000000 0.162125
0.000000 0.055790 0.188085
0.054028 0.054028 0.186322
0.182654 0.050359 0.182654
0.355830 0.045420 0.177715
0.551281 0.039845 0.172140
0.746732 0.034271 0.166566
0.919908 0.029332 0.161626
1.000000 0.025663 0.157958
1.000000 0.023900 0.156195
0.000000 0.175744 0.175744
0.041686 0.173981 0.173981
0.170313 0.170313 0.170313
0.343489 0.165373 0.165373
0.538939 0.159799 0.159799
0.734390 0.154224 0.154224
0.907566 0.149285 0.149285
1.000000 0.145616 0.145616
1.000000 0.143854 0.143854
0.000000 0.337243 0.159128
0.025070 0.335481 0.157365
0.153697 0.331812 0.153697
0.326873 0.326873 0.148757
0.522324 0.321298 0.143183
0.717774 0.315724 0.137608
0.890950 0.310784 0.132669
1.000000 0.307116 0.129001
1.000000 0.305353 0.127238
0.000000 0.519516 0.140375
0.006317 0.517753 0.138612
0.134944 0.514084 0.134944
0.308120 0.509145 0.130004
0.503571 0.503571 0.124430
0.699021 0.497996 0.118855
0.872197 0.493057 0.113916
1.000000 0.489388 0.110248
1.000000 0.487626 0.108485
0.000000 0.701788 0.121622
0.000000 0.700025 0.119859
0.116191 0.696357 0.116191
0.289367 0.691417 0.111251
0.484817 0.685843 0.105677
0.680268 0.680268 0.100102
0.853444 0.675329 0.095163
0.982071 0.671661 0.091495
1.000000 0.669898 0.089732
0.000000 0.863287 0.105006
0.000000 0.861525 0.103243
0.099575 0.857856 0.099575
0.272751 0.852917 0.094636
0.468202 0.847342 0.089061
0.663653 0.841768 0.083486
0.836829 0.836829 0.078547
0.965455 0.833160 0.074879
1.000000 0.831397 0.073116
0.000000 0.983241 0.092665
0.000000 0.981478 0.090902
0.087233 0.977810 0.087233
0.260409 0.972870 0.082294
0.455860 0.967296 0.076720
0.651311 0.961721 0.071145
0.824487 0.956782 0.066206
0.953113 0.953113 0.062537
1.000000 0.951351 0.060775
0.000000 1.000000 0.086735
0.000000 1.000000 0.084972
0.081304 1.000000 0.081304
0.254480 1.000000 0.076364
0.449931 1.000000 0.070790
0.645381 1.000000 0.065215
0.818557 1.000000 0.060276
0.947184 1.000000 0.056608
1.000000 1.000000 0.054845
0.000000 0.000000 0.370453
0.058280 0.000000 0.368690
0.186906 0.000000 0.365021
0.360082 0.000000 0.360082
0.555533 0.000000 0.354508
0.750984 0.000000 0.348933
0.924160 0.000000 0.343994
1.000000 0.000000 0.340325
1.000000 0.000000 0.338563
0.000000 0.054113 0.364523
0.052350 0.052350 0.362760
0.180977 0.048682 0.359092
0.354153 0.043742 0.354153
0.549603 0.038168 0.348578
0.745054 0.032593 0.343003
0.918230 0.027654 0.338064
1.000000 0.023986 0.334396
1.000000 0.022223 0.332633
0.000000 0.174066 0.352182
0.040009 0.172304 0.350419
0.168635 0.168635 0.346750
0.341811 0.163696 0.341811
0.537262 0.158121 0.336237
0.732713 0.152547 0.330662
0.905889 0.147608 0.325723
1.000000 0.143939 0.322054
1.000000 0.142176 0.320292
0.000000 0.335566 0.335566
0.023393 0.333803 0.333803
0.152019 0.330135 0.330135
0.325195 0.325195 0.325195
0.520646 0.319621 0.319621
0.716097 0.314046 0.314046
0.889273 0.309107 0.309107
1.000000 0.305438 0.305438
1.000000 0.303676 0.303676
0.000000 0.517838 0.316813
0.004640 0.516075 0.315050
0.133266 0.512407 0.311381
0.306442 0.507468 0.306442
0.501893 0.501893 0.300868
0.697344 0.496319 0.295293
0.870520 0.491379 0.290354
0.999146 0.487711 0.286685
1.000000 0.485948 0.284923
0.000000 0.700110 0.298060
0.000000 0.698348 0.296297
0.114513 0.694679 0.292628
0.287689 0.689740 0.287689
0.483140 0.684165 0.282115
0.678591 0.678591 0.276540
0.851767 0.673652 0.271601
0.980393 0.669983 0.267932
1.000000 0.668220 0.266170
0.000000 0.861610 0.281444
0.000000 0.859847 0.279681
0.097897 0.856179 0.276013
0.271073 0.851239 0.271073
0.466524 0.845665 0.265499
0.661975 0.840090 0.259924
0.835151 0.835151 0.254985
0.963777 0.831483 0.251317
1.000000 0.829720 0.249554
0.000000 0.981563 0.269102
0.000000 0.979801 0.267340
0.085556 0.976132 0.263671
0.258732 0.971193 0.258732
0.454183 0.965618 0.253157
0.649634 0.960044 0.247583
0.822810 0.955105 0.242644
0.951436 0.951436 0.238975
1.000000 0.949673 0.237212
0.000000 1.000000 0.263173
0.000000 1.000000 0.261410
0.079626 1.000000 0.257741
0.252802 1.000000 0.252802
0.448253 1.000000 0.247228
0.643704 1.000000 0.241653
0.816880 1.000000 0.236714
0.945506 1.000000 0.233045
1.000000 1.000000 0.231283
0.000000 0.000000 0.569585
0.056387 0.000000 0.567822
0.185013 0.000000 0.564154
0.358189 0.000000 0.559215
0.553640 0.000000 0.553640
0.749091 0.000000 0.548065
0.922267 0.000000 0.543126
1.000000 0.000000 0.539458
1.000000 0.000000 0.537695
0.000000 0.052220 0.563655
0.050457 0.050457 0.561893
0.179083 0.046788 0.558224
0.352259 0.041849 0.553285
0.547710 0.036275 0.547710
0.743161 0.030700 0.542136
0.916337 0.025761 0.537197
1.000000 0.022092 0.533528
1.000000 0.020330 0.531765
0.000000 0.172173 0.551314
0.038116 0.170411 0.549551
0.166742 0.166742 0.545883
0.339918 0.161803 0.540943
0.535369 0.156228 0.535369
0.730820 0.150654 0.529794
0.903996 0.145715 0.524855
1.000000 0.142046 0.521187
1.000000 0.140283 0.519424
0.000000 0.333673 0.534698
0.021500 0.331910 0.532935
0.150126 0.328241 0.529267
0.323302 0.323302 0.524328
0.518753 0.317728 0.518753
0.714204 0.312153 0.513179
0.887380 0.307214 0.508239
1.000000 0.303545 0.504571
1.000000 0.301783 0.502808
0.000000 0.515945 0.515945
0.002747 0.514182 0.514182
0.131373 0.510514 0.510514
0.304549 0.505575 0.505575
0.500000 0.500000 0.500000
0.695451 0.494425 0.494425
0.868627 0.489486 0.489486
0.997253 0.485818 0.485818
1.000000 0.484055 0.484055
0.000000 0.698217 0.497192
0.000000 0.696455 0.495429
0.112620 0.692786 0.491761
0.285796 0.687847 0.486821
0.481247 0.682272 0.481247
0.676698 0.676698 0.475672
0.849874 0.671759 0.470733
0.978500 0.668090 0.467065
1.000000 0.666327 0.465302
0.000000 0.859717 0.480576
0.000000 0.857954 0.478813
0.096004 0.854285 0.475145
0.269180 0.849346 0.470206
0.464631 0.843772 0.464631
0.660082 0.838197 0.459057
0.833258 0.833258 0.454117
0.961884 0.829589 0.450449
1.000000 0.827827 0.448686
0.000000 0.979670 0.468235
0.000000 0.977908 0.466472
0.083663 0.974239 0.462803
0.256839 0.969300 0.457864
0.452290 0.963725 0.452290
0.647741 0.958151 0.446715
0.820917 0.953212 0.441776
0.949543 0.949543 0.438107
1.000000 0.947780 0.436345
0.000000 1.000000 0.462305
0.000000 1.000000 0.460542
0.077733 1.000000 0.456874
0.250909 1.000000 0.451935
0.446360 1.000000 0.446360
0.641811 1.000000 0.440785
0.814987 1.000000 0.435846
0.943613 1.000000 0.432178
1.000000 1.000000 0.430415
0.000000 0.000000 0.768717
0.054494 0.000000 0.766955
0.183120 0.000000 0.763286
0.356296 0.000000 0.758347
0.551747 0.000000 0.752772
0.747198 0.000000 0.747198
0.920374 0.000000 0.742259
1.000000 0.000000 0.738590
1.000000 0.000000 0.736827
0.000000 0.050327 0.762788
0.048564 0.048564 0.761025
0.177190 0.044895 0.757356
0.350366 0.039956 0.752417
0.545817 0.034382 0.746843
0.741268 0.028807 0.741268
0.914444 0.023868 0.736329
1.000000 0.020199 0.732660
1.000000 0.018437 0.730898
0.000000 0.170280 0.750446
0.036223 0.168517 0.748683
0.164849 0.164849 0.745015
0.338025 0.159910 0.740076
0.533476 0.154335 0.734501
0.728927 0.148761 0.728927
0.902103 0.143821 0.723987
1.000000 0.140153 0.720319
1.000000 0.138390 0.718556
0.000000 0.331780 0.733830
0.019607 0.330017 0.732068
0.148233 0.326348 0.728399
0.321409 0.321409 0.723460
0.516860 0.315835 0.717885
0.712311 0.310260 0.712311
0.885487 0.305321 0.707372
1.000000 0.301652 0.703703
1.000000 0.299890 0.701940
0.000000 0.514052 0.715077
0.000854 0.512289 0.713315
0.129480 0.508621 0.709646
0.302656 0.503681 0.704707
0.498107 0.498107 0.699132
0.693558 0.492532 0.693558
0.866734 0.487593 0.688619
0.995360 0.483925 0.684950
1.000000 0.482162 0.683187
0.000000 0.696324 0.696324
0.000000 0.694562 0.694562
0.110727 0.690893 0.690893
0.283903 0.685954 0.685954
0.479354 0.680379 0.680379
0.674805 0.674805 0.674805
0.847981 0.669865 0.669865
0.976607 0.666197 0.666197
1.000000 0.664434 0.664434
0.000000 0.857824 0.679708
0.000000 0.856061 0.677946
0.094111 0.852392 0.674277
0.267287 0.847453 0.669338
0.462738 0.841879 0.663763
0.658189 0.836304 0.658189
0.831365 0.831365 0.653250
0.959991 0.827696 0.649581
1.000000 0.825934 0.647818
0.000000 0.977777 0.667367
0.000000 0.976014 0.665604
0.081770 0.972346 0.661936
0.254946 0.967407 0.656997
0.450397 0.961832 0.651422
0.645847 0.956258 0.645847
0.819023 0.951318 0.640908
0.947650 0.947650 0.637240
1.000000 0.945887 0.635477
0.000000 1.000000 0.661437
0.000000 1.000000 0.659675
0.075840 1.000000 0.656006
0.249016 1.000000 0.651067
0.444467 1.000000 0.645492
0.639918 1.000000 0.639918
0.813094 1.000000 0.634979
0.941720 1.000000 0.631310
1.000000 1.000000 0.629547
0.000000 0.000000 0.945155
0.052816 0.000000 0.943392
0.181443 0.000000 0.939724
0.354619 0.000000 0.934785
0.550069 0.000000 0.929210
0.745520 0.000000 0.923636
0.918696 0.000000 0.918696
1.000000 0.000000 0.915028
1.000000 0.000000 0.913265
0.000000 0.048649 0.939225
0.046887 0.046887 0.937463
0.175513 0.043218 0.933794
0.348689 0.038279 0.928855
0.544140 0.032704 0.923280
0.739591 0.027130 0.917706
0.912767 0.022190 0.912767
1.000000 0.018522 0.909098
1.000000 0.016759 0.907335
0.000000 0.168603 0.926884
0.034545 0.166840 0.925121
0.163171 0.163171 0.921453
0.336347 0.158232 0.916514
0.531798 0.152658 0.910939
0.727249 0.147083 0.905364
0.900425 0.142144 0.900425
1.000000 0.138475 0.896757
1.000000 0.136713 0.894994
0.000000 0.330102 0.910268
0.017929 0.328339 0.908505
0.146556 0.324671 0.904837
0.319732 0.319732 0.899898
0.515183 0.314157 0.894323
0.710633 0.308583 0.888749
0.883809 0.303643 0.883809
1.000000 0.299975 0.880141
1.000000 0.298212 0.878378
0.000000 0.512374 0.891515
0.000000 0.510612 0.889752
0.127803 0.506943 0.886084
0.300979 0.502004 0.881145
0.496429 0.496429 0.875570
0.691880 0.490855 0.869996
0.865056 0.485916 0.865056
0.993683 0.482247 0.861388
1.000000 0.480484 0.859625
0.000000 0.694647 0.872762
0.000000 0.692884 0.870999
0.109050 0.689216 0.867331
0.282226 0.684276 0.862392
0.477676 0.678702 0.856817
0.673127 0.673127 0.851243
0.846303 0.668188 0.846303
0.974930 0.664519 0.842635
1.000000 0.662757 0.840872
0.000000 0.856146 0.856146
0.000000 0.854384 0.854384
0.092434 0.850715 0.850715
0.265610 0.845776 0.845776
0.461061 0.840201 0.840201
0.656511 0.834627 0.834627
0.829687 0.829687 0.829687
0.958314 0.826019 0.826019
1.000000 0.824256 0.824256
0.000000 0.976100 0.843805
0.000000 0.974337 0.842042
0.080092 0.970668 0.838374
0.253268 0.965729 0.833434
0.448719 0.960155 0.827860
0.644170 0.954580 0.822285
0.817346 0.949641 0.817346
0.945972 0.945972 0.813678
1.000000 0.944210 0.811915
0.000000 1.000000 0.837875
0.000000 1.000000 0.836112
0.074163 1.000000 0.832444
0.247339 1.000000 0.827505
0.442789 1.000000 0.821930
0.638240 1.000000 0.816356
0.811416 1.000000 0.811416
0.940043 1.000000 0.807748
1.000000 1.000000 0.805985
0.000000 0.000000 1.000000
0.051570 0.000000 1.000000
0.180197 0.000000 1.000000
0.353373 0.000000 1.000000
0.548824 0.000000 1.000000
0.744274 0.000000 1.000000
0.917451 0.000000 1.000000
1.000000 0.000000 1.000000
1.000000 0.000000 1.000000
0.000000 0.047403 1.000000
0.045641 0.045641 1.000000
0.174267 0.041972 1.000000
0.347443 0.037033 1.000000
0.542894 0.031458 1.000000
0.738345 0.025884 1.000000
0.911521 0.020945 1.000000
1.000000 0.017276 1.000000
1.000000 0.015513 1.000000
0.000000 0.167357 1.000000
0.033299 0.165594 1.000000
0.161926 0.161926 1.000000
0.335102 0.156986 1.000000
0.530552 0.151412 1.000000
0.726003 0.145837 1.000000
0.899179 0.140898 1.000000
1.000000 0.137230 1.000000
1.000000 0.135467 1.000000
0.000000 0.328856 1.000000
0.016683 0.327094 1.000000
0.145310 0.323425 1.000000
0.318486 0.318486 1.000000
0.513937 0.312911 1.000000
0.709388 0.307337 1.000000
0.882564 0.302398 1.000000
1.000000 0.298729 1.000000
1.000000 0.296966 1.000000
0.000000 0.511129 1.000000
0.000000 0.509366 1.000000
0.126557 0.505697 1.000000
0.299733 0.500758 1.000000
0.495184 0.495184 1.000000
0.690634 0.489609 1.000000
0.863811 0.484670 0.996105
0.992437 0.481001 0.992437
1.000000 0.479239 0.990674
0.000000 0.693401 1.000000
0.000000 0.691638 1.000000
0.107804 0.687970 0.998380
0.280980 0.683030 0.993441
0.476431 0.677456 0.987866
0.671881 0.671881 0.982292
0.845057 0.666942 0.977352
0.973684 0.663274 0.973684
1.000000 0.661511 0.971921
0.000000 0.854900 0.987195
0.000000 0.853138 0.985433
0.091188 0.849469 0.981764
0.264364 0.844530 0.976825
0.459815 0.838955 0.971250
0.655266 0.833381 0.965676
0.828442 0.828442 0.960737
0.957068 0.824773 0.957068
1.000000 0.823010 0.955305
0.000000 0.974854 0.974854
0.000000 0.973091 0.973091
0.078846 0.969423 0.969423
0.252022 0.964483 0.964483
0.447473 0.958909 0.958909
0.642924 0.953334 0.953334
0.816100 0.948395 0.948395
0.944727 0.944727 0.944727
1.000000 0.942964 0.942964
0.000000 1.000000 0.968924
0.000000 1.000000 0.967161
0.072917 1.000000 0.963493
0.246093 1.000000 0.958554
0.441544 1.000000 0.952979
0.636994 1.000000 0.947405
0.810171 1.000000 0.942465
0.938797 1.000000 0.938797
1.000000 1.000000 0.937034
0.000000 0.000000 1.000000
0.050972 0.000000 1.000000
0.179598 0.000000 1.000000
0.352774 0.000000 1.000000
0.548225 0.000000 1.000000
0.743676 0.000000 1.000000
0.916852 0.000000 1.000000
1.000000 0.000000 1.000000
1.000000 0.000000 1.000000
0.000000 0.046805 1.000000
0.045042 0.045042 1.000000
0.173668 0.041373 1.000000
0.346844 0.036434 1.000000
0.542295 0.030860 1.000000
0.737746 0.025285 1.000000
0.910922 0.020346 1.000000
1.000000 0.016677 1.000000
1.000000 0.014915 1.000000
0.000000 0.166758 1.000000
0.032701 0.164996 1.000000
0.161327 0.161327 1.000000
0.334503 0.156388 1.000000
0.529954 0.150813 1.000000
0.725405 0.145239 1.000000
0.898581 0.140300 1.000000
1.000000 0.136631 1.000000
1.000000 0.134868 1.000000
0.000000 0.328258 1.000000
0.016085 0.326495 1.000000
0.144711 0.322826 1.000000
0.317887 0.317887 1.000000
0.513338 0.312313 1.000000
0.708789 0.306738 1.000000
0.881965 0.301799 1.000000
1.000000 0.298130 1.000000
1.000000 0.296368 1.000000
0.000000 0.510530 1.000000
0.000000 0.508767 1.000000
0.125958 0.505099 1.000000
0.299134 0.500160 1.000000
0.494585 0.494585 1.000000
0.690036 0.489010 1.000000
0.863212 0.484071 1.000000
0.991838 0.480403 1.000000
1.000000 0.478640 1.000000
0.000000 0.692802 1.000000
0.000000 0.691040 1.000000
0.107205 0.687371 1.000000
0.280381 0.682432 1.000000
0.475832 0.676857 1.000000
0.671283 0.671283 1.000000
0.844459 0.666344 1.000000
0.973085 0.662675 1.000000
1.000000 0.660912 1.000000
0.000000 0.854302 1.000000
0.000000 0.852539 1.000000
0.090589 0.848870 1.000000
0.263765 0.843931 1.000000
0.459216 0.838357 1.000000
0.654667 0.832782 1.000000
0.827843 0.827843 1.000000
0.956469 0.824174 1.000000
1.000000 0.822412 1.000000
0.000000 0.974255 1.000000
0.000000 0.972493 1.000000
0.078248 0.968824 1.000000
0.251424 0.963885 1.000000
0.446875 0.958310 1.000000
0.642326 0.952736 1.000000
0.815502 0.947797 1.000000
0.944128 0.944128 1.000000
1.000000 0.942365 1.000000
0.000000 1.000000 1.000000
0.000000 1.000000 1.000000
0.072318 1.000000 1.000000
0.245494 1.000000 1.000000
0.440945 1.000000 1.000000
0.636396 1.000000 1.000000
0.809572 1.000000 1.000000
0.938198 1.000000 1.000000
1.000000 1.000000 1.000000
